svgs/duotone/file-lines.svg

<svg xmlns="http://www.w3.org/2000/svg" viewBox="0 0 384 512"><!-- Font Awesome Pro 6.0.0-alpha2 by @fontawesome - https://fontawesome.com License - https://fontawesome.com/license (Commercial License) --><defs><style>.fa-secondary{opacity:.4}</style></defs><path d="M256 128V0H48C21.49 0 0 21.492 0 48V464C0 490.508 21.49 512 48 512H336C362.51 512 384 490.508 384 464V128H256ZM272 416H112C103.164 416 96 408.836 96 400S103.164 384 112 384H272C280.836 384 288 391.164 288 400S280.836 416 272 416ZM272 352H112C103.164 352 96 344.836 96 336S103.164 320 112 320H272C280.836 320 288 327.164 288 336S280.836 352 272 352ZM272 288H112C103.164 288 96 280.836 96 272S103.164 256 112 256H272C280.836 256 288 263.164 288 272S280.836 288 272 288Z" class="fa-secondary"/><path d="M256 0V128H384L256 0ZM272 384H112C103.164 384 96 391.164 96 400S103.164 416 112 416H272C280.836 416 288 408.836 288 400S280.836 384 272 384ZM272 320H112C103.164 320 96 327.164 96 336S103.164 352 112 352H272C280.836 352 288 344.836 288 336S280.836 320 272 320ZM272 256H112C103.164 256 96 263.164 96 272S103.164 288 112 288H272C280.836 288 288 280.836 288 272S280.836 256 272 256Z" class="fa-primary"/></svg>

<svg xmlns="http://www.w3.org/2000/svg" viewBox="0 0 384 512"><!--! Font Awesome Pro 6.3.0 by @fontawesome - https://fontawesome.com License - https://fontawesome.com/license (Commercial License) Copyright 2023 Fonticons, Inc. --><defs><style>.fa-secondary{opacity:.4}</style></defs><path class="fa-primary" d="M256 0v128h128L256 0zM272 384h-160C103.2 384 96 391.2 96 400S103.2 416 112 416h160c8.836 0 16-7.164 16-16S280.8 384 272 384zM272 320h-160C103.2 320 96 327.2 96 336S103.2 352 112 352h160c8.836 0 16-7.164 16-16S280.8 320 272 320zM272 256h-160C103.2 256 96 263.2 96 272S103.2 288 112 288h160C280.8 288 288 280.8 288 272S280.8 256 272 256z"/><path class="fa-secondary" d="M256 128V0H48C21.49 0 0 21.49 0 48v416C0 490.5 21.49 512 48 512h288c26.51 0 48-21.49 48-48V128H256zM272 416h-160C103.2 416 96 408.8 96 400S103.2 384 112 384h160c8.836 0 16 7.164 16 16S280.8 416 272 416zM272 352h-160C103.2 352 96 344.8 96 336S103.2 320 112 320h160c8.836 0 16 7.164 16 16S280.8 352 272 352zM272 288h-160C103.2 288 96 280.8 96 272S103.2 256 112 256h160C280.8 256 288 263.2 288 272S280.8 288 272 288z"/></svg>
